remix/Business/printer-line.svg

<svg viewBox="0 0 24 24" fill="currentColor" xmlns="http://www.w3.org/2000/svg"><path d="M17 2C17.5523 2 18 2.44772 18 3V7H21C21.5523 7 22 7.44772 22 8V18C22 18.5523 21.5523 19 21 19H18V21C18 21.5523 17.5523 22 17 22H7C6.44772 22 6 21.5523 6 21V19H3C2.44772 19 2 18.5523 2 18V8C2 7.44772 2.44772 7 3 7H6V3C6 2.44772 6.44772 2 7 2H17ZM16 17H8V20H16V17ZM20 9H4V17H6V16C6 15.4477 6.44772 15 7 15H17C17.5523 15 18 15.4477 18 16V17H20V9ZM8 10V12H5V10H8ZM16 4H8V7H16V4Z"/></svg>

<svg viewBox="0 0 24 24" xmlns="http://www.w3.org/2000/svg"><path fill="none" d="M0 0h24v24H0Z"/><path d="M6 19H3v0c-.56 0-1-.45-1-1V8v0c0-.56.44-1 1-1h3V3v0c0-.56.44-1 1-1h10v0c.55 0 1 .44 1 1v4h3v0c.55 0 1 .44 1 1v10 0c0 .55-.45 1-1 1h-3v2 0c0 .55-.45 1-1 1H7v0c-.56 0-1-.45-1-1v-2Zm0-2v-1 0c0-.56.44-1 1-1h10v0c.55 0 1 .44 1 1v1h2V9H4v8h2ZM8 4v3h8V4H8Zm0 13v3h8v-3H8Zm-3-7h3v2H5v-2Z"/></svg>
